X:44
T:Peep of Day. HSJJ.046
M:6/8
L:1/8
Q:3/8=120
S:HSJ Jackson,Wyresdale,Lancs.1823
R:.Jig
O:England
A:Lancashire
N:The apparent missing half bar at the end of each phrase seems to work
N:perfectly well as it is, so I have left it alone.CGP.
H:1823
Z:vmp.Chris Partington.
K:G
DGG EGG|DGGA2G|gdd ecc|dAc BAG|!
DGG EGG|DGG A2G|gdd ecc|” sic”BGG:|!
|:Bdd dbb|dcBc2B|Acc caa|cBAB2A|!
BGG EGG|DGGA2G|gdd ecc|” sic”BGG:|

